src/img/icons/icon-calendar.svg

<svg width="16" height="16" viewBox="0 0 16 16" fill="none" xmlns="http://www.w3.org/2000/svg">
<path fill-rule="evenodd" clip-rule="evenodd" d="M14.1249 1.2492H13.375V-0.000528H12.1249V1.2492H3.87501V-0.000528H2.62496V1.2492H1.87491C0.841056 1.2492 -8e-05 2.09054 -8e-05 3.12435V14.1244C-8e-05 15.1579 0.841056 15.9993 1.87491 15.9993H14.1249C15.1588 15.9993 15.9999 15.1579 15.9999 14.1244V3.12435C15.9999 2.09054 15.1588 1.2492 14.1249 1.2492ZM1.87491 2.49938H2.62496V3.74933H3.87501V2.49938H12.1249V3.74933H13.375V2.49938H14.1249C14.4696 2.49938 14.75 2.77952 14.75 3.12435V4.62451H1.24995V3.12435C1.24995 2.77952 1.53034 2.49938 1.87491 2.49938ZM14.1249 14.7493H1.87491C1.53034 14.7493 1.24995 14.4687 1.24995 14.1244V5.874H14.75V14.1244C14.75 14.4687 14.4696 14.7493 14.1249 14.7493ZM2.37491 7.1868H3.62494V8.43698H2.37491V7.1868ZM6.12491 7.1868H4.87499V8.43698H6.12491V7.1868ZM7.37494 7.1868H8.62499V8.43698H7.37494V7.1868ZM11.1249 7.1868H9.87491V8.43698H11.1249V7.1868ZM12.375 7.1868H13.6249V8.43698H12.375V7.1868ZM3.62494 9.68646H2.37491V10.9369H3.62494V9.68646ZM4.87499 9.68646H6.12491V10.9369H4.87499V9.68646ZM8.62499 9.68646H7.37494V10.9369H8.62499V9.68646ZM9.87491 9.68646H11.1249V10.9369H9.87491V9.68646ZM3.62494 12.1864H2.37491V13.4365H3.62494V12.1864ZM4.87499 12.1864H6.12491V13.4365H4.87499V12.1864ZM8.62499 12.1864H7.37494V13.4365H8.62499V12.1864ZM9.87491 12.1864H11.1249V13.4365H9.87491V12.1864ZM13.6249 9.68646H12.375V10.9369H13.6249V9.68646Z" fill="#FE3E57"/>
</svg>

<svg width="16" height="16" fill="none" xmlns="http://www.w3.org/2000/svg"><path fill-rule="evenodd" clip-rule="evenodd" d="M14.125 1.25h-.75V0h-1.25v1.25h-8.25V0h-1.25v1.25h-.75A1.877 1.877 0 000 3.123v11C0 15.158.84 16 1.875 16h12.25A1.877 1.877 0 0016 14.124v-11a1.877 1.877 0 00-1.875-1.875zM1.875 2.5h.75v1.25h1.25V2.5h8.25v1.25h1.25V2.5h.75c.345 0 .625.28.625.624v1.5H1.25v-1.5c0-.344.28-.625.625-.625zm12.25 12.25H1.875a.626.626 0 01-.625-.626v-8.25h13.5v8.25c0 .345-.28.625-.625.625zM2.375 7.186h1.25v1.25h-1.25v-1.25zm3.75 0h-1.25v1.25h1.25v-1.25zm1.25 0h1.25v1.25h-1.25v-1.25zm3.75 0h-1.25v1.25h1.25v-1.25zm1.25 0h1.25v1.25h-1.25v-1.25zm-8.75 2.5h-1.25v1.25h1.25v-1.25zm1.25 0h1.25v1.25h-1.25v-1.25zm3.75 0h-1.25v1.25h1.25v-1.25zm1.25 0h1.25v1.25h-1.25v-1.25zm-6.25 2.5h-1.25v1.25h1.25v-1.25zm1.25 0h1.25v1.25h-1.25v-1.25zm3.75 0h-1.25v1.25h1.25v-1.25zm1.25 0h1.25v1.25h-1.25v-1.25zm3.75-2.5h-1.25v1.25h1.25v-1.25z" fill="#FE3E57"/></svg>
